assets/logos/gbm.svg

<svg xmlns="http://www.w3.org/2000/svg" width="80" height="80" fill="none" viewBox="0 0 80 80"><path fill="#3b78e7" d="M52.8 43.2c1.76 0 3.2-1.44 3.2-3.2V11.2C56 9.44 54.56 8 52.8 8H11.2A3.21 3.21 0 0 0 8 11.2V56l12.8-12.8zm-3.2-28.8v22.4H14.4V14.4zm19.2 6.4h-6.4v28.8H20.8V56c0 1.76 1.44 3.2 3.2 3.2h35.2L72 72V24c0-1.76-1.44-3.2-3.2-3.2"/></svg>

<svg width="80" height="80" viewBox="0 0 80 80" fill="none" xmlns="http://www.w3.org/2000/svg">
<path d="M52.8 43.2C54.56 43.2 56 41.76 56 40V11.2C56 9.44 54.56 8 52.8 8H11.2C9.44 8 8 9.44 8 11.2V56L20.8 43.2H52.8ZM49.6 14.4V36.8H14.4V14.4H49.6ZM68.8 20.8H62.4V49.6H20.8V56C20.8 57.76 22.24 59.2 24 59.2H59.2L72 72V24C72 22.24 70.56 20.8 68.8 20.8Z" fill="#3B78E7"/>
</svg>
